X:489
T:Ladie's Misfortune,The. (p)1702.PLFD.489
M:6/4
L:1/4
Q:3/4=130
S:Playford, Dancing Master,Supp.to 11th Ed.,1702.
O:England
Z:Chris Partington.
K:C
cBAcBA|e6|cBAcBA|e6|edcedc|g6|
edcedc|g6|gfefed|edcdgf|edcd2d|c6|
|cdecde|d6|GABcBA|B6|c2c^c2c|d2de2e|
fedee2|d6|dcBBAG|dcBBAG|dcBA2G|G6|
g2g^fe^d|e3e2^f|g^fef2f|e6|cGcGEG|c3c2d|
edcB2A|A3-A2B|cGcGEG|c3-c2d|edcB2A|A3A2|]
